TV/Source/Auto Motor und Sport.svg

<svg height="4.223733" viewBox="0 0 16.1237 3.9597502" width="17.198612" xmlns="http://www.w3.org/2000/svg" xmlns:xlink="http://www.w3.org/1999/xlink"><clipPath id="a"><path d="m201.343 82.595h12.899v3.168h-12.899z"/></clipPath><g clip-path="url(#a)" transform="matrix(1.25 0 0 -1.25 -251.67875 107.20375)"><g transform="translate(201.3507 85.7632)"><path d="m0 0h12.891v-3.161c.001-.004-.001-.006-.004-.007h-12.895c.001.003.004.004.004.007v3.15c0 .005 0 .01.004.011" fill="#e50011"/></g><g transform="translate(204.4471 84.5667)"><path d="m0 0c .027-.054.107-.089.177-.094.081-.006.167.017.237.037v.162c-.055-.005-.09.021-.098.072-.015.098.011.284 0 .38h.075c-.002.061.005.133-.003.188-.009-.001-.047-.003-.068.004-.001.058.003.131-.004.173h-.353v-.177h-.072v-.188h.083c.02-.182-.038-.431.026-.557m-1.381.075c.001-.001.003-.005.004-.007.056-.101.207-.155.346-.162.155-.009.304.046.395.113v-.072h.346c-.002.265.005.54-.003.798h-.343c-.019-.198.053-.49-.079-.576-.09-.059-.243-.042-.305.038-.04.053-.045.15-.045.252v.286h-.342c-.004-.001-.004-.006-.004-.011.019-.22-.038-.499.03-.659m2.04-.94c.053-.07.18-.051.274-.027v.117c-.114-.02-.044.216-.064.308h.053c-.001.044.002.102-.004.128-.015.003-.04-.005-.049.004v.12h-.244v-.124h-.053c.002-.02 0-.097 0-.128.019-.002.048.006.06-.003.013-.13-.027-.325.027-.395m1.576-.019v.188c0 .061-.013.141.008.184.035.076.202.063.199-.049h.222c.024.166-.08.275-.23.264-.085-.007-.143-.056-.199-.087v.061h-.229c.002-.186-.005-.382.003-.561.049.001.154-.001.226 0m-2.735.365c-.015.148-.162.222-.313.214-.101-.005-.172-.041-.252-.075-.051.032-.121.065-.203.072-.112.008-.222-.024-.297-.061-.004.014.009.044-.008.046h-.21v-.558c.063-.009.16 0 .218-.003.016.115-.025.238.008.327.038.109.235.115.282.008.038-.087-.008-.23.015-.335.06.001.19-.004.233.003v.162c0 .053-.01.114.004.158.036.123.248.11.286.008.03-.081-.007-.216.007-.328.056-.008.166-.001.23-.003-.008.134.01.26 0 .365m3.506-.738h.042v.102c-.012.002-.033-.005-.038.004v.093c-.047.007-.163.006-.199 0v-.097h-.041c.001-.026-.003-.09.003-.102.014-.002.038.005.045-.003.018-.111-.032-.246.019-.317.043-.06.145-.041.222-.022.004.021.005.055.004.09-.093-.005-.044.164-.057.252m-2.761-.041c-.065.005-.228-.024-.226.049.001.039.082.054.139.037.02-.005.027-.022.045-.026.068-.016.157.012.218 0-.01.07-.07.095-.131.113-.137.04-.392.029-.452-.057-.029-.041-.026-.114-.007-.146.039-.067.131-.071.237-.083.04-.005.156-.009.158-.049.002-.05-.105-.05-.143-.037-.023.007-.035.028-.056.033-.034.009-.078 0-.113 0-.039 0-.075.003-.11-.003.041-.106.152-.144.309-.155.153-.01.343.029.343.173-.001.102-.11.143-.211.151m2.25.188c-.069-.006-.118-.047-.162-.072v.049h-.192c-.008-.133-.001-.314-.004-.466h.196v.154c0 .052-.011.112.004.151.026.07.171.057.169-.038.062.002.133-.005.188.004.012.143-.074.229-.199.218m-3.029-.102c-.021.009-.051.003-.06-.011-.003.01-.011.014-.027.011.001-.037-.001-.085 0-.12.001-.01-.006-.031.008-.034h.011c.016.047-.024.149.049.139.017-.032.003-.094.008-.139h.026c-.005.052.012.125-.015.154m-.147 0c-.018-.033.027-.148-.045-.139-.016.033-.003.095-.008.139h-.022c.002-.048-.004-.105.004-.146.018-.019.055-.011.071.004-.012-.012.006-.013.019-.012.006.02.004.058.004.09-.001.03.008.07-.023.064m1.866 1.118c.171.002.352.036.456.113.12.089.162.243.146.402-.014.145-.107.244-.191.294-.126.074-.309.097-.512.083-.064-.005-.122-.012-.181-.027-.115-.028-.21-.069-.271-.143-.094-.113-.115-.335-.041-.481.094-.187.326-.245.594-.241m-.173.598c.029.022.062.032.109.038.058.007.143 0 .192-.03.083-.05.111-.194.042-.279-.072-.088-.297-.09-.373 0-.064.077-.039.22.03.271m-2.63-.482c-.005.04-.002.085-.004.129-.001.042-.002.085-.003.127-.002.089.002.179-.004.256-.02.245-.348.284-.606.267-.201-.012-.397-.047-.481-.176-.019-.029-.03-.074-.03-.117h.372c.016.015.028.034.053.045.106.046.344.052.342-.087-.28-.039-.639.015-.783-.154-.015-.018-.033-.051-.037-.067-.092-.357.486-.408.749-.279.029.015.05.04.075.053.012-.023.012-.058.034-.072h.353c-.005.022-.026.046-.03.075m-.594.087c-.096-.006-.206.004-.196.094.014.124.29.1.429.098.004-.132-.107-.184-.233-.192m2.239-.417c-.088-.006-.171-.016-.23-.042-.036-.015-.08-.046-.102-.071-.082-.098-.074-.297.004-.384.071-.08.209-.111.361-.109.174.002.325.04.384.15.06.11.042.266-.03.346-.065.073-.213.12-.387.11m.154-.388c-.044-.049-.171-.057-.23-.015-.052.036-.059.137-.015.188.018.02.038.03.079.038.082.014.165-.009.188-.072.015-.039.009-.104-.022-.139m1.241.388c-.16-.011-.302-.052-.357-.159-.044-.085-.037-.216.004-.293.061-.113.204-.154.372-.154.183 0 .344.04.407.154.044.08.041.22 0 .297-.023.043-.065.078-.098.098-.08.048-.204.064-.328.057m.166-.381c-.054-.075-.238-.057-.271.019-.042.099.026.172.098.185.076.012.146-.01.173-.046.031-.04.033-.111 0-.158m-1.994-.534c-.113.093-.107-.23 0-.128-.006-.018.009-.015.022-.015v.211h-.022zm-.03-.128c-.039.001-.05.124.011.124.029-.02.03-.124-.011-.124m1.396.241c-.043.002-.094-.001-.14-.019-.025-.01-.049-.034-.071-.041-.004.01.008.035-.008.034h-.176v-.584h.184v.166c.057-.039.105-.059.18-.064.159-.01.287.077.309.222.025.164-.111.276-.278.286m-.2-.305c-.036.089.029.163.109.173.077.011.159-.035.162-.116.006-.154-.221-.179-.271-.057m.873.301c-.142-.011-.238-.052-.278-.128-.053-.098-.021-.214.011-.263.086-.13.424-.148.568-.06.079.048.131.181.083.301-.046.115-.189.166-.384.15m.136-.335c-.047-.032-.154-.03-.192.015-.031.037-.024.109 0 .14.016.02.041.029.067.034.076.014.148-.012.162-.068.01-.038.001-.094-.037-.121" fill="#fff"/></g><g transform="translate(207.8486 85.6654)"><path d="m0 0c .003-.983-.005-2.037.004-2.988h6.306v2.999h-6.306c-.005 0-.004-.006-.004-.011" fill="#fff"/></g><g transform="translate(208.6277 84.3146)"><path d="m0 0c .018-.01.024-.026.034-.042.011-.017.017-.036.03-.049.058.02.111.045.169.064-.035.14-.148.221-.327.204-.091-.009-.174-.063-.218-.136-.088-.143-.073-.401.064-.511.037-.031.096-.055.154-.061.159-.014.284.06.327.177-.052.031-.107.058-.162.087-.024-.042-.037-.076-.075-.091-.175-.069-.209.265-.109.347.032.025.079.03.113.011m.843-.083-.211.004v.245h-.188c0 .008-.01-.002-.007-.008v-.677c.05-.002.145 0 .195 0v .271c.055-.003.165.004.214-.004v-.267h.192v.685h-.192c-.002-.082-.003-.249-.003-.249m.831.249c-.049 0-.13-.001-.191 0-.078-.233-.166-.454-.245-.685.065-.002.203-.004.203-.004l.042.124.203-.004.033-.116.207-.004s-.167.455-.244.689zm-.147-.414c.014.072.039.134.054.206.019-.067.037-.137.056-.206zm.998.414v-.358l-.256.358h-.162v-.685c.045 0 .147-.001.181 0-.002.124.004.273-.004.38.066-.098.133-.198.199-.29.023-.031.048-.064.076-.09.035 0 .114-.001.15 0v .685c-.06-.001-.184 0-.184 0m .846-.358c-.04.063-.08.125-.124.184-.045.06-.088.12-.135.174h-.158c-.001.004-.004.002-.008 0v-.685c.046-.001.138-.001.184 0 0 .128.002.264-.003.376.042-.066.089-.128.136-.192.046-.064.085-.133.138-.188.028.008.118.001.151.004v.685h-.184c.001-.12-.004-.245.003-.358m1.667-.162c-.1.003-.211-.005-.305.004.003.17-.005.351.004.516-.053.001-.124-.001-.188 0 0 .008-.011-.002-.008-.008v-.677c.151-.001.334 0 .497 0 .001.041-.001.112 0 .165m-1.057.109h.199v.162h-.203c.003.029-.005.068.004.091h.335v.158h-.523c-.009-.221-.001-.458-.004-.685h.534v.158h-.346c.003.037-.005.085.004.116" fill="#e50011"/></g></g></svg>

<?xml version="1.0" encoding="UTF-8" standalone="no"?>
<!-- Created with Inkscape (http://www.inkscape.org/) -->

<svg
   xmlns:dc="http://purl.org/dc/elements/1.1/"
   xmlns:cc="http://creativecommons.org/ns#"
   xmlns:rdf="http://www.w3.org/1999/02/22-rdf-syntax-ns#"
   xmlns:svg="http://www.w3.org/2000/svg"
   xmlns="http://www.w3.org/2000/svg"
   xmlns:sodipodi="http://sodipodi.sourceforge.net/DTD/sodipodi-0.dtd"
   xmlns:inkscape="http://www.inkscape.org/namespaces/inkscape"
   width="17.198612"
   height="4.2237334"
   id="svg27521"
   version="1.1"
   inkscape:version="0.92.0 r15299"
   sodipodi:docname="Auto Motor und Sport.svg"
   viewBox="0 0 16.1237 3.9597502">
  <defs
     id="defs27523">
    <clipPath
       clipPathUnits="userSpaceOnUse"
       id="clipPath21338">
      <path
         inkscape:connector-curvature="0"
         d="m 201.343,82.595 h 12.899 v 3.168 h -12.899 z"
         id="path21340" />
    </clipPath>
  </defs>
  <sodipodi:namedview
     id="base"
     pagecolor="#ffffff"
     bordercolor="#666666"
     borderopacity="1.0"
     inkscape:pageopacity="0.0"
     inkscape:pageshadow="2"
     inkscape:zoom="55.44633"
     inkscape:cx="5.0978781"
     inkscape:cy="1.9465336"
     inkscape:document-units="px"
     inkscape:current-layer="layer1"
     showgrid="false"
     fit-margin-top="0"
     fit-margin-left="0"
     fit-margin-right="0"
     fit-margin-bottom="0"
     inkscape:window-width="1920"
     inkscape:window-height="1017"
     inkscape:window-x="-8"
     inkscape:window-y="-8"
     inkscape:window-maximized="1" />
  <metadata
     id="metadata27526">
    <rdf:RDF>
      <cc:Work
         rdf:about="">
        <dc:format>image/svg+xml</dc:format>
        <dc:type
           rdf:resource="http://purl.org/dc/dcmitype/StillImage" />
        <dc:title></dc:title>
      </cc:Work>
    </rdf:RDF>
  </metadata>
  <g
     inkscape:label="Ebene 1"
     inkscape:groupmode="layer"
     id="layer1"
     transform="translate(-316.33294,-546.54984)">
    <g
       id="g21334"
       transform="matrix(1.25,0,0,-1.25,64.65419,653.75359)">
      <g
         id="g21336"
         clip-path="url(#clipPath21338)">
        <g
           id="g21342"
           transform="translate(201.3507,85.7632)">
          <path
             d="M 0,0 H 12.891 V -3.161 C 12.892,-3.165 12.89,-3.167 12.887,-3.168 H -0.008 c 0.001,0.003 0.004,0.004 0.004,0.007 v 3.15 c 0,0.005 0,0.01 0.004,0.011"
             style="fill:#e50011;fill-opacity:1;fill-rule:nonzero;stroke:none"
             id="path21344"
             inkscape:connector-curvature="0" />
        </g>
        <g
           id="g21346"
           transform="translate(204.4471,84.5667)">
          <path
             d="M 0,0 C 0.027,-0.054 0.107,-0.089 0.177,-0.094 0.258,-0.1 0.344,-0.077 0.414,-0.057 V 0.105 C 0.359,0.1 0.324,0.126 0.316,0.177 c -0.015,0.098 0.011,0.284 0,0.38 H 0.391 C 0.389,0.618 0.396,0.69 0.388,0.745 0.379,0.744 0.341,0.742 0.32,0.749 0.319,0.807 0.323,0.88 0.316,0.922 H -0.037 V 0.745 H -0.109 V 0.557 h 0.083 C -0.006,0.375 -0.064,0.126 0,0 m -1.381,0.075 c 0.001,-0.001 0.003,-0.005 0.004,-0.007 0.056,-0.101 0.207,-0.155 0.346,-0.162 0.155,-0.009 0.304,0.046 0.395,0.113 v -0.072 h 0.346 c -0.002,0.265 0.005,0.54 -0.003,0.798 H -0.636 C -0.655,0.547 -0.583,0.255 -0.715,0.169 -0.805,0.11 -0.958,0.127 -1.02,0.207 -1.06,0.26 -1.065,0.357 -1.065,0.459 V 0.745 H -1.407 C -1.411,0.744 -1.411,0.739 -1.411,0.734 -1.392,0.514 -1.449,0.235 -1.381,0.075 m 2.04,-0.94 c 0.053,-0.07 0.18,-0.051 0.274,-0.027 v 0.117 c -0.114,-0.02 -0.044,0.216 -0.064,0.308 h 0.053 c -0.001,0.044 0.002,0.102 -0.004,0.128 -0.015,0.003 -0.04,-0.005 -0.049,0.004 v 0.12 H 0.625 V -0.339 H 0.572 c 0.002,-0.02 0,-0.097 0,-0.128 0.019,-0.002 0.048,0.006 0.06,-0.003 0.013,-0.13 -0.027,-0.325 0.027,-0.395 m 1.576,-0.019 v 0.188 c 0,0.061 -0.013,0.141 0.008,0.184 0.035,0.076 0.202,0.063 0.199,-0.049 h 0.222 c 0.024,0.166 -0.08,0.275 -0.23,0.264 C 2.349,-0.304 2.291,-0.353 2.235,-0.384 v 0.061 H 2.006 c 0.002,-0.186 -0.005,-0.382 0.003,-0.561 0.049,0.001 0.154,-0.001 0.226,0 M -0.5,-0.519 c -0.015,0.148 -0.162,0.222 -0.313,0.214 -0.101,-0.005 -0.172,-0.041 -0.252,-0.075 -0.051,0.032 -0.121,0.065 -0.203,0.072 -0.112,0.008 -0.222,-0.024 -0.297,-0.061 -0.004,0.014 0.009,0.044 -0.008,0.046 h -0.21 v -0.558 c 0.063,-0.009 0.16,0 0.218,-0.003 0.016,0.115 -0.025,0.238 0.008,0.327 0.038,0.109 0.235,0.115 0.282,0.008 0.038,-0.087 -0.008,-0.23 0.015,-0.335 0.06,0.001 0.19,-0.004 0.233,0.003 v 0.162 c 0,0.053 -0.01,0.114 0.004,0.158 0.036,0.123 0.248,0.11 0.286,0.008 0.03,-0.081 -0.007,-0.216 0.007,-0.328 0.056,-0.008 0.166,-0.001 0.23,-0.003 -0.008,0.134 0.01,0.26 0,0.365 m 3.506,-0.738 h 0.042 v 0.102 C 3.036,-1.153 3.015,-1.16 3.01,-1.151 v 0.093 c -0.047,0.007 -0.163,0.006 -0.199,0 V -1.155 H 2.77 c 10e-4,-0.026 -0.003,-0.09 0.003,-0.102 0.014,-0.002 0.038,0.005 0.045,-0.003 0.018,-0.111 -0.032,-0.246 0.019,-0.317 0.043,-0.06 0.145,-0.041 0.222,-0.022 0.004,0.021 0.005,0.055 0.004,0.09 C 2.97,-1.514 3.019,-1.345 3.006,-1.257 M 0.245,-1.298 c -0.065,0.005 -0.228,-0.024 -0.226,0.049 0.001,0.039 0.082,0.054 0.139,0.037 0.02,-0.005 0.027,-0.022 0.045,-0.026 0.068,-0.016 0.157,0.012 0.218,0 -0.01,0.07 -0.07,0.095 -0.131,0.113 -0.137,0.04 -0.392,0.029 -0.452,-0.057 -0.029,-0.041 -0.026,-0.114 -0.007,-0.146 0.039,-0.067 0.131,-0.071 0.237,-0.083 C 0.108,-1.416 0.224,-1.42 0.226,-1.46 0.228,-1.51 0.121,-1.51 0.083,-1.497 0.06,-1.49 0.048,-1.469 0.027,-1.464 c -0.034,0.009 -0.078,0 -0.113,0 -0.039,0 -0.075,0.003 -0.11,-0.003 0.041,-0.106 0.152,-0.144 0.309,-0.155 0.153,-0.01 0.343,0.029 0.343,0.173 -0.001,0.102 -0.11,0.143 -0.211,0.151 m 2.25,0.188 C 2.426,-1.116 2.377,-1.157 2.333,-1.182 v 0.049 H 2.141 C 2.133,-1.266 2.14,-1.447 2.137,-1.599 h 0.196 v 0.154 c 0,0.052 -0.011,0.112 0.004,0.151 0.026,0.07 0.171,0.057 0.169,-0.038 0.062,0.002 0.133,-0.005 0.188,0.004 0.012,0.143 -0.074,0.229 -0.199,0.218 m -3.029,-0.102 c -0.021,0.009 -0.051,0.003 -0.06,-0.011 -0.003,0.01 -0.011,0.014 -0.027,0.011 0.001,-0.037 -0.001,-0.085 0,-0.12 0.001,-0.01 -0.006,-0.031 0.008,-0.034 h 0.011 c 0.016,0.047 -0.024,0.149 0.049,0.139 0.017,-0.032 0.003,-0.094 0.008,-0.139 h 0.026 c -0.005,0.052 0.012,0.125 -0.015,0.154 m -0.147,0 c -0.018,-0.033 0.027,-0.148 -0.045,-0.139 -0.016,0.033 -0.003,0.095 -0.008,0.139 h -0.022 c 0.002,-0.048 -0.004,-0.105 0.004,-0.146 0.018,-0.019 0.055,-0.011 0.071,0.004 -0.012,-0.012 0.006,-0.013 0.019,-0.012 0.006,0.02 0.004,0.058 0.004,0.09 -0.001,0.03 0.008,0.07 -0.023,0.064 m 1.866,1.118 c 0.171,0.002 0.352,0.036 0.456,0.113 0.12,0.089 0.162,0.243 0.146,0.402 C 1.773,0.566 1.68,0.665 1.596,0.715 1.47,0.789 1.287,0.812 1.084,0.798 1.02,0.793 0.962,0.786 0.903,0.771 0.788,0.743 0.693,0.702 0.632,0.628 0.538,0.515 0.517,0.293 0.591,0.147 0.685,-0.04 0.917,-0.098 1.185,-0.094 M 1.012,0.504 c 0.029,0.022 0.062,0.032 0.109,0.038 0.058,0.007 0.143,0 0.192,-0.03 C 1.396,0.462 1.424,0.318 1.355,0.233 1.283,0.145 1.058,0.143 0.982,0.233 0.918,0.31 0.943,0.453 1.012,0.504 M -1.618,0.022 C -1.623,0.062 -1.62,0.107 -1.622,0.151 -1.623,0.193 -1.624,0.236 -1.625,0.278 -1.627,0.367 -1.623,0.457 -1.629,0.534 -1.649,0.779 -1.977,0.818 -2.235,0.801 -2.436,0.789 -2.632,0.754 -2.716,0.625 -2.735,0.596 -2.746,0.551 -2.746,0.508 h 0.372 c 0.016,0.015 0.028,0.034 0.053,0.045 0.106,0.046 0.344,0.052 0.342,-0.087 -0.28,-0.039 -0.639,0.015 -0.783,-0.154 -0.015,-0.018 -0.033,-0.051 -0.037,-0.067 -0.092,-0.357 0.486,-0.408 0.749,-0.279 0.029,0.015 0.05,0.04 0.075,0.053 0.012,-0.023 0.012,-0.058 0.034,-0.072 h 0.353 c -0.005,0.022 -0.026,0.046 -0.03,0.075 m -0.594,0.087 c -0.096,-0.006 -0.206,0.004 -0.196,0.094 0.014,0.124 0.29,0.1 0.429,0.098 0.004,-0.132 -0.107,-0.184 -0.233,-0.192 m 2.239,-0.417 c -0.088,-0.006 -0.171,-0.016 -0.23,-0.042 -0.036,-0.015 -0.08,-0.046 -0.102,-0.071 -0.082,-0.098 -0.074,-0.297 0.004,-0.384 0.071,-0.08 0.209,-0.111 0.361,-0.109 0.174,0.002 0.325,0.04 0.384,0.15 0.06,0.11 0.042,0.266 -0.03,0.346 -0.065,0.073 -0.213,0.12 -0.387,0.11 m 0.154,-0.388 c -0.044,-0.049 -0.171,-0.057 -0.23,-0.015 -0.052,0.036 -0.059,0.137 -0.015,0.188 0.018,0.02 0.038,0.03 0.079,0.038 0.082,0.014 0.165,-0.009 0.188,-0.072 0.015,-0.039 0.009,-0.104 -0.022,-0.139 m 1.241,0.388 C 1.262,-0.319 1.12,-0.36 1.065,-0.467 1.021,-0.552 1.028,-0.683 1.069,-0.76 1.13,-0.873 1.273,-0.914 1.441,-0.914 c 0.183,0 0.344,0.04 0.407,0.154 0.044,0.08 0.041,0.22 0,0.297 C 1.825,-0.42 1.783,-0.385 1.75,-0.365 1.67,-0.317 1.546,-0.301 1.422,-0.308 M 1.588,-0.689 C 1.534,-0.764 1.35,-0.746 1.317,-0.67 c -0.042,0.099 0.026,0.172 0.098,0.185 0.076,0.012 0.146,-0.01 0.173,-0.046 0.031,-0.04 0.033,-0.111 0,-0.158 m -1.994,-0.534 c -0.113,0.093 -0.107,-0.23 0,-0.128 -0.006,-0.018 0.009,-0.015 0.022,-0.015 v 0.211 h -0.022 z m -0.03,-0.128 c -0.039,10e-4 -0.05,0.124 0.011,0.124 0.029,-0.02 0.03,-0.124 -0.011,-0.124 M 0.96,-1.11 C 0.917,-1.108 0.866,-1.111 0.82,-1.129 0.795,-1.139 0.771,-1.163 0.749,-1.17 0.745,-1.16 0.757,-1.135 0.741,-1.136 H 0.565 V -1.72 h 0.184 v 0.166 c 0.057,-0.039 0.105,-0.059 0.18,-0.064 0.159,-0.01 0.287,0.077 0.309,0.222 0.025,0.164 -0.111,0.276 -0.278,0.286 m -0.2,-0.305 c -0.036,0.089 0.029,0.163 0.109,0.173 0.077,0.011 0.159,-0.035 0.162,-0.116 C 1.037,-1.512 0.81,-1.537 0.76,-1.415 m 0.873,0.301 C 1.491,-1.125 1.395,-1.166 1.355,-1.242 1.302,-1.34 1.334,-1.456 1.366,-1.505 c 0.086,-0.13 0.424,-0.148 0.568,-0.06 0.079,0.048 0.131,0.181 0.083,0.301 -0.046,0.115 -0.189,0.166 -0.384,0.15 m 0.136,-0.335 c -0.047,-0.032 -0.154,-0.03 -0.192,0.015 -0.031,0.037 -0.024,0.109 0,0.14 0.016,0.02 0.041,0.029 0.067,0.034 0.076,0.014 0.148,-0.012 0.162,-0.068 0.01,-0.038 10e-4,-0.094 -0.037,-0.121"
             style="fill:#ffffff;fill-opacity:1;fill-rule:nonzero;stroke:none"
             id="path21348"
             inkscape:connector-curvature="0" />
        </g>
        <g
           id="g21350"
           transform="translate(207.8486,85.6654)">
          <path
             d="M 0,0 C 0.003,-0.983 -0.005,-2.037 0.004,-2.988 H 6.31 V 0.011 H 0.004 C -0.001,0.011 0,0.005 0,0"
             style="fill:#ffffff;fill-opacity:1;fill-rule:nonzero;stroke:none"
             id="path21352"
             inkscape:connector-curvature="0" />
        </g>
        <g
           id="g21354"
           transform="translate(208.6277,84.3146)">
          <path
             d="m 0,0 c 0.018,-0.01 0.024,-0.026 0.034,-0.042 0.011,-0.017 0.017,-0.036 0.03,-0.049 0.058,0.02 0.111,0.045 0.169,0.064 C 0.198,0.113 0.085,0.194 -0.094,0.177 -0.185,0.168 -0.268,0.114 -0.312,0.041 -0.4,-0.102 -0.385,-0.36 -0.248,-0.47 c 0.037,-0.031 0.096,-0.055 0.154,-0.061 0.159,-0.014 0.284,0.06 0.327,0.177 C 0.181,-0.323 0.126,-0.296 0.071,-0.267 0.047,-0.309 0.034,-0.343 -0.004,-0.358 -0.179,-0.427 -0.213,-0.093 -0.113,-0.011 -0.081,0.014 -0.034,0.019 0,0 M 0.843,-0.083 0.632,-0.079 V 0.166 H 0.444 c 0,0.008 -0.01,-0.002 -0.007,-0.008 v -0.677 c 0.05,-0.002 0.145,0 0.195,0 v 0.271 c 0.055,-0.003 0.165,0.004 0.214,-0.004 V -0.519 H 1.038 V 0.166 H 0.846 C 0.844,0.084 0.843,-0.083 0.843,-0.083 m 0.831,0.249 c -0.049,0 -0.13,-0.001 -0.191,0 C 1.405,-0.067 1.317,-0.288 1.238,-0.519 1.303,-0.521 1.441,-0.523 1.441,-0.523 l 0.042,0.124 0.203,-0.004 0.033,-0.116 0.207,-0.004 c 0,0 -0.167,0.455 -0.244,0.689 z M 1.527,-0.248 c 0.014,0.072 0.039,0.134 0.054,0.206 C 1.6,-0.109 1.618,-0.179 1.637,-0.248 Z M 2.525,0.166 V -0.192 L 2.269,0.166 H 2.107 v -0.685 c 0.045,0 0.147,-0.001 0.181,0 -0.002,0.124 0.004,0.273 -0.004,0.38 0.066,-0.098 0.133,-0.198 0.199,-0.29 0.023,-0.031 0.048,-0.064 0.076,-0.09 0.035,0 0.114,-0.001 0.15,0 v 0.685 c -0.06,-0.001 -0.184,0 -0.184,0 m 0.846,-0.358 c -0.04,0.063 -0.08,0.125 -0.124,0.184 -0.045,0.06 -0.088,0.12 -0.135,0.174 H 2.954 C 2.953,0.17 2.95,0.168 2.946,0.166 v -0.685 c 0.046,-0.001 0.138,-0.001 0.184,0 0,0.128 0.002,0.264 -0.003,0.376 0.042,-0.066 0.089,-0.128 0.136,-0.192 0.046,-0.064 0.085,-0.133 0.138,-0.188 0.028,0.008 0.118,0.001 0.151,0.004 V 0.166 H 3.368 C 3.369,0.046 3.364,-0.079 3.371,-0.192 m 1.667,-0.162 c -0.1,0.003 -0.211,-0.005 -0.305,0.004 0.003,0.17 -0.005,0.351 0.004,0.516 -0.053,0.001 -0.124,-0.001 -0.188,0 0,0.008 -0.011,-0.002 -0.008,-0.008 v -0.677 c 0.151,-0.001 0.334,0 0.497,0 10e-4,0.041 -0.001,0.112 0,0.165 M 3.981,-0.245 H 4.18 v 0.162 H 3.977 C 3.98,-0.054 3.972,-0.015 3.981,0.008 H 4.316 V 0.166 H 3.793 C 3.784,-0.055 3.792,-0.292 3.789,-0.519 h 0.534 v 0.158 H 3.977 c 0.003,0.037 -0.005,0.085 0.004,0.116"
             style="fill:#e50011;fill-opacity:1;fill-rule:nonzero;stroke:none"
             id="path21356"
             inkscape:connector-curvature="0" />
        </g>
      </g>
    </g>
  </g>
</svg>
